X: 3460
T: Betty Black
R: barndance
M: 4/4
K: Gmajor
G>A|B2 A>G A2 D2|B2 A>G B<d g2|B2 A>G A2 D2|E>GF<A G2- G>A|
B2 (3BAG A2- A>D|B2 A>G B2 g2|B2 A>G A2 D2|E>G (3FGA G2- G3/2||
d/|e>^de>f g>fe<=d|B>^AB>d g2 G2|e2 (3^def g>fe<=d|B2 (3Bcd e2- e>^d|
e2- e>f g2 (3fed|e>gf>a g2 (3fga|b2 (3agf g>fe<d|B>^AB<d e2||

